X: 6
T: Banshee, The
Z: PatrickFarrelly
S: https://thesession.org/tunes/8#setting26709
R: reel
M: 4/4
L: 1/8
K: Gmaj
|:G2 GD EDEG|AGAB d2 Bd|eged BAGA|BAGE EDDE|
G2 GD EDEG|AGAB d2 Bd|eged BAGA|BAGE ED D2:|
|:ea a2 efgf|eBBA B2 Bd|eB B2 efgf| edcB A2 Bd|
ea a2 efgf|eBBA B2 Bd|eged BAGA|BAGE EDD2:|
